img/benefit-icon1.svg

<svg height="157" viewBox="0 0 157 157" width="157" xmlns="http://www.w3.org/2000/svg"><g fill="#0A0A0A"><path d="m78.2 156.4c-43.1886674 0-78.2-35.011333-78.2-78.2 0-43.1886674 35.0113326-78.2 78.2-78.2 43.188667 0 78.2 35.0113326 78.2 78.2 0 43.188667-35.011333 78.2-78.2 78.2zm0-2c42.084098 0 76.2-34.115902 76.2-76.2 0-42.0840979-34.115902-76.2-76.2-76.2-42.0840979 0-76.2 34.1159021-76.2 76.2 0 42.084098 34.1159021 76.2 76.2 76.2z"/><path d="m83.5982853 46.7291332c-.0009375.0657784-.0025211.1757237-.0062615.4354155-.0063699.4377835-.0136659.9255756-.0217725 1.4508816-.0231628 1.5009512-.0481792 3.0019368-.0741264 4.403085-.0333857 1.8028272-.0658514 3.305526-.0965105 4.4092518-.0153353.5520718-.4753097.9871826-1.0273815.9718473s-.9871826-.4753097-.9718473-1.0273815c.030452-1.0962742.0628011-2.5935754.0960821-4.3907482.0259047-1.3988518.0508883-2.8978662.0740217-4.396915.0080972-.524694.0153845-1.0119019.0217461-1.4491184.0046495-.3228081.005961-.413864.0068433-.4764402-.0188021-.1218905-.0635028-.3294033-.1446329-.5953761-.1611904-.5284386-.4036672-1.0572976-.7405342-1.5464469-.9569101-1.389486-2.4795697-2.2171881-4.8139117-2.2171881-2.4069039 0-3.9725621.6102053-4.9163023 1.5927293-.3114244.3242226-.5307068.6671334-.6744496 1.0050032-.0577997.1358589-.0922208.2412409-.1092708.3047563-.0000497.1266863-.0001866.3107586-.0004643.5459589-.0006085.5153778-.0017036 1.0896134-.0034072 1.7080056-.0048677 1.7669727-.0136298 3.5340065-.0272632 5.1836461-.0166004 2.0086439-.0393401 3.702919-.0691129 4.9831501-.0128404.5521355-.4708438.9893206-1.0229792.9764802-.5521355-.0128404-.9893206-.4708438-.9764802-1.0229792.0294957-1.2683141.0521157-2.9536749.0686406-4.9531794.0135995-1.6455383.0223442-3.4090523.0272025-5.1726274.0005835-.2118264.0010956-.4184592.001541-.6193035-.044468-.0930046-.0751969-.1945234-.0892548-.302301-.0111699-.0856359-.0522783-.2774752-.1372544-.5380686-.1457019-.4468191-.3617046-.8943922-.6586835-1.3083627-.8459881-1.1792563-2.1768075-1.8829079-4.2124617-1.8829079-3.8199399 0-5.719453 1.0593438-6.0052186 4.2020289-.3482037 3.3949861-.4333249 19.6956948-.2008977 21.7875396.0609897.5489068-.3345453 1.0433256-.8834522 1.1043152-.5489068.0609897-1.0433256-.3345453-1.1043152-.8834522-.0724539-.6520846-.1165369-2.5079165-.1337194-4.8981643-4.3333605.3436318-7.1193729 1.9523226-8.7675782 5.4135298-.6117614 1.299993-.8048187 2.593477-.8054792 4.5378634.225183 6.1925338.7974418 11.4620833 1.8759738 16.3155139 1.191704 5.2633593 3.170556 10.1494137 5.9779685 14.6993757.3847385.629572.4416314.722269.6066521.985875 1.1535772 1.842738 2.039217 2.92041 3.0751182 3.590756 3.0866842 1.9549 4.0351977 4.467179 3.6572258 8.368854-.036548.292383-.0440314.626643-.0302101 1.096566.0033654.114426.0069815.212623.0149318.41403.0174414.441848.0230004.625914.0230004.865369 0 .552285-.4477153 1-1 1s-1-.447715-1-1c0-.203755-.0050759-.371823-.021444-.786483-.0082083-.207943-.0119997-.310899-.0156238-.434118-.0165812-.563764-.0070712-.988544.0417178-1.375723.3079593-3.182247-.3601369-4.951799-2.7479013-6.464106-1.3563945-.877667-2.3935963-2.139764-3.6920395-4.213913-.1705417-.272425-.2285304-.366908-.6157452-1.00055-2.9220787-4.735782-4.9842856-9.8276511-6.2251511-15.3081765-1.1090898-4.9909043-1.6938935-10.3759721-1.9238129-16.7169305 0-2.249274.2320793-3.8042053.9971395-5.4299336 2.0079047-4.2166 5.4907092-6.1938844 10.5672318-6.5629381-.0065001-5.6984791.1117481-13.0751998.3397355-15.297664.4007974-4.4087713 3.2710055-6.0094643 7.9958932-6.0094643 2.6200105 0 4.5209196.9693635 5.742021 2.5872865.1858987-.2892314.4166962-.5858176.6992813-.8800158 1.3375098-1.392476 3.4281016-2.2072707 6.3586977-2.2072707 3.003158 0 5.1367484 1.1597979 6.4610883 3.0828119.2260098.3281787.4159192.6557946.5740619.9753031.1714866-.1943588.3528266-.3833699.5490928-.5702323 1.4717808-1.4012622 3.3299212-2.2197568 5.6490243-2.169269 2.8492986.0965864 4.8883335 1.2345126 6.1775369 3.0624073.2647201.375333.4812273.7500931.6561007 1.1128952 1.1654752-1.4395527 2.9382485-2.293739 5.3996141-2.2917014 3.507656.2338437 6.115649 2.9461566 6.232049 6.4442905.274117 5.1168428.378226 10.4294014.363929 16.8057368-.006635 2.9594794-.029525 5.3123641-.094803 10.6595891-.037 3.0308744-.052581 4.3999532-.067694 6.0881688 0 .4792933.00122.8614774.004929 1.7358126.00968 2.2818419.006692 3.3089477-.024423 4.5924227-.092 3.7950083-.437575 6.8001366-1.215742 9.6348821-1.386948 5.0854766-2.431798 7.4981296-4.792091 9.6768226-2.819648 2.563316-3.7872388 5.659607-3.372673 10.06006v1.2c0 .552285-.4477153 1-1 1s-1-.447715-1-1v-.6c0-.3 0-.3.0045045-.505191-.4658511-4.891436.6964387-8.610764 4.0172155-11.629612 1.986081-1.833306 2.923232-3.997273 4.213954-8.729914.72878-2.6548417 1.057026-5.5092729 1.14542-9.1555183.030502-1.2581992.033453-2.2725696.023853-4.5354676-.003721-.8771779-.004947-1.2612218-.004907-1.7532253.015179-1.7000504.030776-3.070604.067803-6.1036543.065196-5.3405655.088044-7.6890509.09466-10.6396596.014219-6.342074-.089197-11.6192873-.361948-16.7144431-.083137-2.4941172-1.887058-4.3701953-4.300555-4.5333148-1.9410456 0-3.1916727.6780508-3.9764924 1.8173052-.2764287.4012674-.4754082.8359314-.6072872 1.2701673-.0769998.253536-.1131328.4401243-.1168144.4469898-.0035922.1041725-.0096607.2898359-.017456.544078v5.8214597c0 .1629359-.0396844.3166031-.1099151.4518632.0008351.738755.0096781 1.3828645.02741 1.914822.0183993.5519782-.4141519 1.0143604-.9661301 1.0327597s-1.0143604-.4141519-1.0327597-.9661301c-.0304951-.9148531-.0356216-2.1272669-.0200243-3.5679909.0104928-.9692314.0299465-2.0026493.0557694-3.0562263.0140503-.5732506.0291038-1.116382.0441605-1.612248.0090434-.2978297.0160878-.5139915.0256556-.7072811.0035299-.0317696.007503-.0640994.0119337-.0969652v-.8262624c-.0189905-.1213569-.0652577-.3313419-.1500041-.6016399-.166149-.5299312-.4156328-1.0604823-.7621295-1.551762-.9403971-1.3333403-2.4147773-2.1561491-4.6272581-2.2312209-1.7531194-.0381113-3.1239611.5657324-4.2402213 1.6285084-.3757852.3577799-.6878515.7326262-.9945911 1.1644121-.0549161.0773032-.1765875.2541852-.2455606.3544946z"/></g></svg>

<svg xmlns="http://www.w3.org/2000/svg" width="157" height="157" viewBox="0 0 157 157"><g fill="none"><path fill="#000000" d="M78.2,156.4 C35.0113326,156.4 0,121.388667 0,78.2 C0,35.0113326 35.0113326,0 78.2,0 C121.388667,0 156.4,35.0113326 156.4,78.2 C156.4,121.388667 121.388667,156.4 78.2,156.4 Z M78.2,154.4 C120.284098,154.4 154.4,120.284098 154.4,78.2 C154.4,36.1159021 120.284098,2 78.2,2 C36.1159021,2 2,36.1159021 2,78.2 C2,120.284098 36.1159021,154.4 78.2,154.4 Z"/><path fill="#000000" d="M83.5982853,46.7291332 C83.5973478,46.7949116 83.5957642,46.9048569 83.5920238,47.1645487 C83.5856539,47.6023322 83.5783579,48.0901243 83.5702513,48.6154303 C83.5470885,50.1163815 83.5220721,51.6173671 83.4961249,53.0185153 C83.4627392,54.8213425 83.4302735,56.3240413 83.3996144,57.4277671 C83.3842791,57.9798389 82.9243047,58.4149497 82.3722329,58.3996144 C81.8201611,58.3842791 81.3850503,57.9243047 81.4003856,57.3722329 C81.4308376,56.2759587 81.4631867,54.7786575 81.4964677,52.9814847 C81.5223724,51.5826329 81.547356,50.0836185 81.5704894,48.5845697 C81.5785866,48.0598757 81.5858739,47.5726678 81.5922355,47.1354513 C81.596885,46.8126432 81.5981965,46.7215873 81.5990788,46.6590111 C81.5802767,46.5371206 81.535576,46.3296078 81.4544459,46.063635 C81.2932555,45.5351964 81.0507787,45.0063374 80.7139117,44.5171881 C79.7570016,43.1277021 78.234342,42.3 75.9,42.3 C73.4930961,42.3 71.9274379,42.9102053 70.9836977,43.8927293 C70.6722733,44.2169519 70.4529909,44.5598627 70.3092481,44.8977325 C70.2514484,45.0335914 70.2170273,45.1389734 70.1999773,45.2024888 C70.1999276,45.3291751 70.1997907,45.5132474 70.199513,45.7484477 C70.1989045,46.2638255 70.1978094,46.8380611 70.1961058,47.4564533 C70.1912381,49.223426 70.182476,50.9904598 70.1688426,52.6400994 C70.1522422,54.6487433 70.1295025,56.3430184 70.0997297,57.6232495 C70.0868893,58.175385 69.6288859,58.6125701 69.0767505,58.5997297 C68.524615,58.5868893 68.0874299,58.1288859 68.1002703,57.5767505 C68.129766,56.3084364 68.152386,54.6230756 68.1689109,52.6235711 C68.1825104,50.9780328 68.1912551,49.2145188 68.1961134,47.4509437 C68.1966969,47.2391173 68.197209,47.0324845 68.1976544,46.8316402 C68.1531864,46.7386356 68.1224575,46.6371168 68.1083996,46.5293392 C68.0972297,46.4437033 68.0561213,46.251864 67.9711452,45.9912706 C67.8254433,45.5444515 67.6094406,45.0968784 67.3124617,44.6829079 C66.4664736,43.5036516 65.1356542,42.8 63.1,42.8 C59.2800601,42.8 57.380547,43.8593438 57.0947814,47.0020289 C56.7465777,50.397015 56.6614565,66.6977237 56.8938837,68.7895685 C56.9548734,69.3384753 56.5593384,69.8328941 56.0104315,69.8938837 C55.4615247,69.9548734 54.9671059,69.5593384 54.9061163,69.0104315 C54.8336624,68.3583469 54.7895794,66.502515 54.7723969,64.1122672 C50.4390364,64.455899 47.653024,66.0645898 46.0048187,69.525797 C45.3930573,70.82579 45.2,72.119274 45.1993395,74.0636604 C45.4245225,80.2561942 45.9967813,85.5257437 47.0753133,90.3791743 C48.2670173,95.6425336 50.2458693,100.528588 53.0532818,105.07855 C53.4380203,105.708122 53.4949132,105.800819 53.6599339,106.064425 C54.8135111,107.907163 55.6991509,108.984835 56.7350521,109.655181 C59.8217363,111.610081 60.7702498,114.12236 60.3922779,118.024035 C60.3557299,118.316418 60.3482465,118.650678 60.3620678,119.120601 C60.3654332,119.235027 60.3690493,119.333224 60.3769996,119.534631 C60.394441,119.976479 60.4,120.160545 60.4,120.4 C60.4,120.952285 59.9522847,121.4 59.4,121.4 C58.8477153,121.4 58.4,120.952285 58.4,120.4 C58.4,120.196245 58.3949241,120.028177 58.378556,119.613517 C58.3703477,119.405574 58.3665563,119.302618 58.3629322,119.179399 C58.346351,118.615635 58.355861,118.190855 58.40465,117.803676 C58.7126093,114.621429 58.0445131,112.851877 55.6567487,111.33957 C54.3003542,110.461903 53.2631524,109.199806 51.9647092,107.125657 C51.7941675,106.853232 51.7361788,106.758749 51.348964,106.125107 C48.4268853,101.389325 46.3646784,96.2974559 45.1238129,90.8169305 C44.0147231,85.8260262 43.4299194,80.4409584 43.2,74.1 C43.2,71.850726 43.4320793,70.2957947 44.1971395,68.6700664 C46.2050442,64.4534664 49.6878487,62.476182 54.7643713,62.1071283 C54.7578712,56.4086492 54.8761194,49.0319285 55.1041068,46.8094643 C55.5049042,42.400693 58.3751123,40.8 63.1,40.8 C65.7200105,40.8 67.6209196,41.7693635 68.842021,43.3872865 C69.0279197,43.0980551 69.2587172,42.8014689 69.5413023,42.5072707 C70.8788121,41.1147947 72.9694039,40.3 75.9,40.3 C78.903158,40.3 81.0367484,41.4597979 82.3610883,43.3828119 C82.5870981,43.7109906 82.7770075,44.0386065 82.9351502,44.358115 C83.1066368,44.1637562 83.2879768,43.9747451 83.484243,43.7878827 C84.9560238,42.3866205 86.8141642,41.5681259 89.1332673,41.6186137 C91.9825659,41.7152001 94.0216008,42.8531263 95.3108042,44.681021 C95.5755243,45.056354 95.7920315,45.4311141 95.9669049,45.7939162 C97.1323801,44.3543635 98.9051534,43.5001772 101.366519,43.5022148 C104.874175,43.7360585 107.482168,46.4483714 107.598568,49.9465053 C107.872685,55.0633481 107.976794,60.3759067 107.962497,66.7522421 C107.955862,69.7117215 107.932972,72.0646062 107.867694,77.4118312 C107.830694,80.4427056 107.815113,81.8117844 107.8,83.5 C107.8,83.9792933 107.80122,84.3614774 107.804929,85.2358126 C107.814609,87.5176545 107.811621,88.5447603 107.780506,89.8282353 C107.688506,93.6232436 107.342931,96.6283719 106.564764,99.4631174 C105.177816,104.548594 104.132966,106.961247 101.772673,109.13994 C98.953025,111.703256 97.9854342,114.799547 98.4,119.2 L98.4,120.4 C98.4,120.952285 97.9522847,121.4 97.4,121.4 C96.8477153,121.4 96.4,120.952285 96.4,120.4 L96.4,119.8 C96.4,119.5 96.4,119.5 96.4045045,119.294809 C95.9386534,114.403373 97.1009432,110.684045 100.42172,107.665197 C102.407801,105.831891 103.344952,103.667924 104.635674,98.935283 C105.364454,96.2804413 105.6927,93.4260101 105.781094,89.7797647 C105.811596,88.5215655 105.814547,87.5071951 105.804947,85.2442971 C105.801226,84.3671192 105.8,83.9830753 105.80004,83.4910718 C105.815219,81.7910214 105.830816,80.4204678 105.867843,77.3874175 C105.933039,72.046852 105.955887,69.6983666 105.962503,66.7477579 C105.976722,60.4056839 105.873306,55.1284706 105.600555,50.0333148 C105.517418,47.5391976 103.713497,45.6631195 101.3,45.5 C99.3589544,45.5 98.1083273,46.1780508 97.3235076,47.3173052 C97.0470789,47.7185726 96.8480994,48.1532366 96.7162204,48.5874725 C96.6392206,48.8410085 96.6030876,49.0275968 96.599406,49.0344623 C96.5958138,49.1386348 96.5897453,49.3242982 96.58195,49.5785403 L96.58195,55.4 C96.58195,55.5629359 96.5422656,55.7166031 96.4720349,55.8518632 C96.47287,56.5906182 96.481713,57.2347277 96.4994449,57.7666852 C96.5178442,58.3186634 96.085293,58.7810456 95.5333148,58.7994449 C94.9813366,58.8178442 94.5189544,58.385293 94.5005551,57.8333148 C94.47006,56.9184617 94.4649335,55.7060479 94.4805308,54.2653239 C94.4910236,53.2960925 94.5104773,52.2626746 94.5363002,51.2090976 C94.5503505,50.635847 94.565404,50.0927156 94.5804607,49.5968496 C94.5895041,49.2990199 94.5965485,49.0828581 94.6061163,48.8895685 C94.6096462,48.8577989 94.6136193,48.8254691 94.61805,48.7926033 L94.61805,47.9663409 C94.5990595,47.844984 94.5527923,47.634999 94.4680459,47.364701 C94.3018969,46.8347698 94.0524131,46.3042187 93.7059164,45.812939 C92.7655193,44.4795987 91.2911391,43.6567899 89.0786583,43.5817181 C87.3255389,43.5436068 85.9546972,44.1474505 84.838437,45.2102265 C84.4626518,45.5680064 84.1505855,45.9428527 83.8438459,46.3746386 C83.7889298,46.4519418 83.6672584,46.6288238 83.5982853,46.7291332 Z"/></g></svg>
